svg/24/lock--filled.svg

<svg width="24" height="24" viewBox="0 0 24 24" fill="currentColor" xmlns="http://www.w3.org/2000/svg"><path fill-rule="evenodd" clip-rule="evenodd" d="M12 1.25C9.37665 1.25 7.25 3.37665 7.25 6V9H6C4.89543 9 4 9.89543 4 11V20C4 21.1046 4.89543 22 6 22H18C19.1046 22 20 21.1046 20 20V11C20 9.89543 19.1046 9 18 9H16.75V6C16.75 3.37665 14.6234 1.25 12 1.25ZM15.25 9V6C15.25 4.20507 13.7949 2.75 12 2.75C10.2051 2.75 8.75 4.20507 8.75 6V9H15.25ZM13.5 14.5C13.5 15.0552 13.1984 15.54 12.75 15.7993V17.25C12.75 17.6642 12.4142 18 12 18C11.5858 18 11.25 17.6642 11.25 17.25V15.7993C10.8016 15.54 10.5 15.0552 10.5 14.5C10.5 13.6716 11.1716 13 12 13C12.8284 13 13.5 13.6716 13.5 14.5Z"/></svg>

<svg xmlns="http://www.w3.org/2000/svg" width="24" height="24" fill="currentColor" viewBox="0 0 24 24">
  <path fill-rule="evenodd" d="M12 1.25A4.75 4.75 0 0 0 7.25 6v3H6a2 2 0 0 0-2 2v9a2 2 0 0 0 2 2h12a2 2 0 0 0 2-2v-9a2 2 0 0 0-2-2h-1.25V6A4.75 4.75 0 0 0 12 1.25ZM15.25 9V6a3.25 3.25 0 0 0-6.5 0v3h6.5Zm-1.75 5.5a1.5 1.5 0 0 1-.75 1.3v1.45a.75.75 0 0 1-1.5 0V15.8a1.5 1.5 0 1 1 2.25-1.3Z" clip-rule="evenodd"/>
</svg>
